; generated by PrusaSlicer 2.1.1+win64 on 2020-05-27 at 16:53:20 UTC

; 

; external perimeters extrusion width = 0.45mm
; perimeters extrusion width = 0.45mm
; infill extrusion width = 0.45mm
; solid infill extrusion width = 0.45mm
; top infill extrusion width = 0.40mm
; first layer extrusion width = 0.42mm

M73 P0 R152
M73 Q0 S153
M201 X1000 Y1000 Z200 E5000 ; sets maximum accelerations, mm/sec^2
M203 X200 Y200 Z12 E120 ; sets maximum feedrates, mm/sec
M204 P1250 R1250 T1250 ; sets acceleration (P, T) and retract acceleration (R), mm/sec^2
M205 X8.00 Y8.00 Z0.40 E4.50 ; sets the jerk limits, mm/sec
M205 S0 T0 ; sets the minimum extruding and travel feed rate, mm/sec
M107
M862.3 P "MK3S" ; printer model check
M862.1 P0.4 ; nozzle diameter check
M115 U3.9.0 ; tell printer latest fw version
G90 ; use absolute coordinates
M83 ; extruder relative mode
M104 S215 ; set extruder temp
M140 S60 ; set bed temp
M190 S60 ; wait for bed temp
M109 S215 ; wait for extruder temp
G28 W ; home all without mesh bed level
G80 ; mesh bed leveling
G1 Y-3.0 F1000.0 ; go outside print area
G92 E0.0
G1 X60.0 E9.0 F1000.0 ; intro line
M73 Q0 S153
M73 P0 R152
G1 X100.0 E12.5 F1000.0 ; intro line
G92 E0.0
M221 S95
G21 ; set units to millimeters
G90 ; use absolute coordinates
M83 ; use relative distances for extrusion
M900 K0.06 ; Filament gcode LA 1.5
M900 K30 ; Filament gcode LA 1.0
;BEFORE_LAYER_CHANGE
G92 E0.0
;0.2


G1 E-0.80000 F2100.00000
G1 Z0.600 F10800.000
;AFTER_LAYER_CHANGE
;0.2
G1 X105.327 Y69.808
G1 Z0.200
G1 E0.80000 F2100.00000
M204 S1000
G1 F1200
G1 X105.886 Y69.732 E0.01771
G1 X144.102 Y69.731 E1.19824
G1 X144.670 Y69.807 E0.01794
G1 X145.194 Y70.026 E0.01783
G1 X145.648 Y70.374 E0.01794
G1 X145.994 Y70.826 E0.01783
G1 X165.121 Y103.957 E1.19949
G1 X165.321 Y104.470 E0.01726
G1 X165.386 Y105.016 E0.01726
G1 X165.313 Y105.562 E0.01726
G1 X165.107 Y106.069 E0.01714
G1 X145.985 Y139.190 E1.19915
G1 X145.633 Y139.641 E0.01794
G1 X145.172 Y139.987 E0.01805
G1 X144.656 Y140.196 E0.01749
G1 X144.099 Y140.269 E0.01761
G1 X105.887 Y140.268 E1.19811
G1 X105.341 Y140.196 E0.01726
G1 X104.834 Y139.991 E0.01714
G1 X104.370 Y139.644 E0.01817
G1 X104.015 Y139.190 E0.01805
G1 X84.887 Y106.059 E1.19950
G1 X84.683 Y105.544 E0.01737
G1 X84.614 Y104.995 E0.01737
G1 X84.685 Y104.445 E0.01737
G1 X84.893 Y103.931 E0.01737
G1 X104.015 Y70.810 E1.19915
G1 X104.360 Y70.367 E0.01760
G1 X104.805 Y70.026 E0.01760
G1 X105.271 Y69.831 E0.01583
G1 F8640
G1 X105.886 Y69.732 E-0.14388
G1 X108.555 Y69.732 E-0.61612
G1 E-0.04000 F2100.00000
G1 Z0.800 F10800.000
G1 X106.277 Y72.571
G1 Z0.200
G1 E0.80000 F2100.00000
G1 F1200
G1 X143.723 Y72.571 E1.17408
G1 X162.446 Y105.000 E1.17408
G1 X143.723 Y137.429 E1.17408
G1 X106.277 Y137.429 E1.17408
G1 X87.554 Y105.000 E1.17408
G1 X106.247 Y72.623 E1.17220
G1 X106.059 Y72.194 F10800.000
G1 F1200
G1 X143.941 Y72.194 E1.18774
G1 X162.881 Y105.000 E1.18774
G1 X143.941 Y137.806 E1.18774
G1 X106.059 Y137.806 E1.18774
G1 X87.119 Y105.000 E1.18774
G1 X106.029 Y72.246 E1.18585
G1 X106.406 Y72.394 F10800.000
G1 F8640
G1 X109.321 Y72.241 E-0.76000
G1 E-0.04000 F2100.00000
G1 Z0.800 F10800.000
G1 X87.780 Y105.164
G1 Z0.200
G1 E0.80000 F2100.00000
G1 F1200
G1 X119.762 Y137.146 E1.42024
G1 X120.296 Y137.146 E0.01677
G1 X87.979 Y104.830 E1.43510
G1 X88.175 Y104.491 E0.01228
G1 X120.830 Y137.146 E1.45013
G1 X121.364 Y137.146 E0.01677
G1 X88.370 Y104.152 E1.46517
G1 X88.566 Y103.814 E0.01228
G1 X121.898 Y137.146 E1.48020
G1 X122.432 Y137.146 E0.01677
G1 X88.761 Y103.475 E1.49524
G1 X88.957 Y103.137 E0.01228
G1 X122.966 Y137.146 E1.51028
G1 X123.500 Y137.146 E0.01677
G1 X89.152 Y102.798 E1.52531
G1 X89.348 Y102.460 E0.01228
G1 X124.034 Y137.146 E1.54035
M73 Q0 S152
M73 P0 R151
G1 X124.568 Y137.146 E0.01677
G1 X89.543 Y102.121 E1.55538
G1 X89.739 Y101.782 E0.01228
G1 X125.102 Y137.146 E1.57042
G1 X125.636 Y137.146 E0.01677
G1 X89.934 Y101.444 E1.58545
G1 X90.129 Y101.105 E0.01228
G1 X126.170 Y137.146 E1.60049
G1 X126.704 Y137.146 E0.01677
G1 X90.325 Y100.767 E1.61552
G1 X90.520 Y100.428 E0.01228
G1 X127.239 Y137.146 E1.63056
G1 X127.773 Y137.146 E0.01677
G1 X90.716 Y100.089 E1.64560
G1 X90.911 Y99.751 E0.01228
G1 X128.307 Y137.146 E1.66063
G1 X128.841 Y137.146 E0.01677
G1 X91.107 Y99.412 E1.67567
G1 X91.302 Y99.074 E0.01228
G1 X129.375 Y137.146 E1.69070
G1 X129.909 Y137.146 E0.01677
G1 X91.498 Y98.735 E1.70574
G1 X91.693 Y98.397 E0.01228
G1 X130.443 Y137.146 E1.72077
G1 X130.977 Y137.146 E0.01677
G1 X91.889 Y98.058 E1.73581
G1 X92.084 Y97.719 E0.01228
G1 X131.511 Y137.146 E1.75085
G1 X132.045 Y137.146 E0.01677
G1 X92.280 Y97.381 E1.76588
G1 X92.475 Y97.042 E0.01228
G1 X132.579 Y137.146 E1.78092
G1 X133.113 Y137.146 E0.01677
G1 X92.671 Y96.704 E1.79595
G1 X92.866 Y96.365 E0.01228
G1 X133.647 Y137.146 E1.81099
G1 X134.181 Y137.146 E0.01677
G1 X93.062 Y96.026 E1.82602
G1 X93.257 Y95.688 E0.01228
G1 X134.715 Y137.146 E1.84106
G1 X135.249 Y137.146 E0.01677
G1 X93.453 Y95.349 E1.85610
G1 X93.648 Y95.011 E0.01228
G1 X135.784 Y137.146 E1.87113
M73 Q1 S151
M73 P1 R150
G1 X136.318 Y137.146 E0.01677
G1 X93.844 Y94.672 E1.88617
G1 X94.039 Y94.334 E0.01228
G1 X136.852 Y137.146 E1.90120
G1 X137.386 Y137.146 E0.01677
G1 X94.235 Y93.995 E1.91624
G1 X94.430 Y93.656 E0.01228
G1 X137.920 Y137.146 E1.93127
G1 X138.454 Y137.146 E0.01677
G1 X94.626 Y93.318 E1.94631
G1 X94.821 Y92.979 E0.01228
G1 X138.988 Y137.146 E1.96134
G1 X139.522 Y137.146 E0.01677
G1 X95.017 Y92.641 E1.97638
G1 X95.212 Y92.302 E0.01228
G1 X140.056 Y137.146 E1.99142
G1 X140.590 Y137.146 E0.01677
G1 X95.407 Y91.963 E2.00645
G1 X95.603 Y91.625 E0.01228
G1 X141.124 Y137.146 E2.02149
G1 X141.658 Y137.146 E0.01677
G1 X95.798 Y91.286 E2.03652
G1 X95.994 Y90.948 E0.01228
G1 X142.192 Y137.146 E2.05156
G1 X142.726 Y137.146 E0.01677
G1 X96.189 Y90.609 E2.06659
G1 X96.385 Y90.271 E0.01228
G1 X143.260 Y137.146 E2.08163
G1 X143.560 Y137.146 E0.00939
G1 X143.646 Y136.997 E0.00540
G1 X96.580 Y89.932 E2.09005
G1 X96.776 Y89.593 E0.01228
G1 X143.841 Y136.659 E2.09005
G1 X144.037 Y136.320 E0.01228
G1 X96.971 Y89.255 E2.09005
G1 X97.167 Y88.916 E0.01228
G1 X144.232 Y135.981 E2.09005
G1 X144.427 Y135.643 E0.01228
G1 X97.362 Y88.578 E2.09005
M73 Q2 S150
M73 P2 R149
G1 X97.558 Y88.239 E0.01228
G1 X144.623 Y135.304 E2.09005
G1 X144.818 Y134.966 E0.01228
G1 X97.753 Y87.900 E2.09005
G1 X97.949 Y87.562 E0.01228
G1 X145.014 Y134.627 E2.09005
G1 X145.209 Y134.289 E0.01228
G1 X98.144 Y87.223 E2.09005
G1 X98.340 Y86.885 E0.01228
G1 X145.405 Y133.950 E2.09005
G1 X145.600 Y133.611 E0.01228
G1 X98.535 Y86.546 E2.09005
G1 X98.731 Y86.208 E0.01228
G1 X145.796 Y133.273 E2.09005
G1 X145.991 Y132.934 E0.01228
G1 X98.926 Y85.869 E2.09005
G1 X99.122 Y85.530 E0.01228
G1 X146.187 Y132.596 E2.09005
G1 X146.382 Y132.257 E0.01228
G1 X99.317 Y85.192 E2.09005
G1 X99.513 Y84.853 E0.01228
G1 X146.578 Y131.918 E2.09005
G1 X146.773 Y131.580 E0.01228
G1 X99.708 Y84.515 E2.09005
G1 X99.904 Y84.176 E0.01228
G1 X146.969 Y131.241 E2.09005
G1 X147.164 Y130.903 E0.01228
G1 X100.099 Y83.838 E2.09005
G1 X100.294 Y83.499 E0.01228
G1 X147.360 Y130.564 E2.09005
G1 X147.555 Y130.226 E0.01228
G1 X100.490 Y83.160 E2.09005
G1 X100.685 Y82.822 E0.01228
G1 X147.751 Y129.887 E2.09005
G1 X147.946 Y129.548 E0.01228
G1 X100.881 Y82.483 E2.09005
M73 Q2 S149
M73 P2 R148
G1 X101.076 Y82.145 E0.01228
G1 X148.142 Y129.210 E2.09005
G1 X148.337 Y128.871 E0.01228
G1 X101.272 Y81.806 E2.09005
G1 X101.467 Y81.467 E0.01228
G1 X148.533 Y128.533 E2.09005
G1 X148.728 Y128.194 E0.01228
G1 X101.663 Y81.129 E2.09005
G1 X101.858 Y80.790 E0.01228
G1 X148.924 Y127.855 E2.09005
G1 X149.119 Y127.517 E0.01228
G1 X102.054 Y80.452 E2.09005
G1 X102.249 Y80.113 E0.01228
G1 X149.315 Y127.178 E2.09005
G1 X149.510 Y126.840 E0.01228
G1 X102.445 Y79.775 E2.09005
G1 X102.640 Y79.436 E0.01228
G1 X149.705 Y126.501 E2.09005
G1 X149.901 Y126.163 E0.01228
G1 X102.836 Y79.097 E2.09005
G1 X103.031 Y78.759 E0.01228
G1 X150.096 Y125.824 E2.09005
G1 X150.292 Y125.485 E0.01228
G1 X103.227 Y78.420 E2.09005
G1 X103.422 Y78.082 E0.01228
G1 X150.487 Y125.147 E2.09005
G1 X150.683 Y124.808 E0.01228
G1 X103.618 Y77.743 E2.09005
G1 X103.813 Y77.404 E0.01228
G1 X150.878 Y124.470 E2.09005
G1 X151.074 Y124.131 E0.01228
G1 X104.009 Y77.066 E2.09005
G1 X104.204 Y76.727 E0.01228
G1 X151.269 Y123.792 E2.09005
G1 X151.465 Y123.454 E0.01228
G1 X104.400 Y76.389 E2.09005
M73 Q3 S148
M73 P3 R147
G1 X104.595 Y76.050 E0.01228
G1 X151.660 Y123.115 E2.09005
G1 X151.856 Y122.777 E0.01228
G1 X104.791 Y75.712 E2.09005
G1 X104.986 Y75.373 E0.01228
G1 X152.051 Y122.438 E2.09005
G1 X152.247 Y122.100 E0.01228
G1 X105.182 Y75.034 E2.09005
G1 X105.377 Y74.696 E0.01228
G1 X152.442 Y121.761 E2.09005
G1 X152.638 Y121.422 E0.01228
G1 X105.572 Y74.357 E2.09005
G1 X105.768 Y74.019 E0.01228
G1 X152.833 Y121.084 E2.09005
G1 X153.029 Y120.745 E0.01228
G1 X105.963 Y73.680 E2.09005
G1 X106.159 Y73.341 E0.01228
G1 X153.224 Y120.407 E2.09005
G1 X153.420 Y120.068 E0.01228
G1 X106.354 Y73.003 E2.09005
G1 X106.440 Y72.854 E0.00540
G1 X106.739 Y72.854 E0.00939
G1 X153.615 Y119.729 E2.08163
G1 X153.811 Y119.391 E0.01228
G1 X107.274 Y72.854 E2.06660
G1 X107.808 Y72.854 E0.01677
G1 X154.006 Y119.052 E2.05156
G1 X154.202 Y118.714 E0.01228
G1 X108.342 Y72.854 E2.03653
G1 X108.876 Y72.854 E0.01677
G1 X154.397 Y118.375 E2.02149
G1 X154.592 Y118.037 E0.01228
G1 X109.410 Y72.854 E2.00645
G1 X109.944 Y72.854 E0.01677
G1 X154.788 Y117.698 E1.99142
G1 X154.983 Y117.359 E0.01228
G1 X110.478 Y72.854 E1.97638
G1 X111.012 Y72.854 E0.01677
G1 X155.179 Y117.021 E1.96135
M73 Q4 S147
M73 P4 R146
G1 X155.374 Y116.682 E0.01228
G1 X111.546 Y72.854 E1.94631
G1 X112.080 Y72.854 E0.01677
G1 X155.570 Y116.344 E1.93128
G1 X155.765 Y116.005 E0.01228
G1 X112.614 Y72.854 E1.91624
G1 X113.148 Y72.854 E0.01677
G1 X155.961 Y115.666 E1.90120
G1 X156.156 Y115.328 E0.01228
G1 X113.682 Y72.854 E1.88617
G1 X114.216 Y72.854 E0.01677
G1 X156.352 Y114.989 E1.87113
G1 X156.547 Y114.651 E0.01228
G1 X114.750 Y72.854 E1.85610
G1 X115.284 Y72.854 E0.01677
G1 X156.743 Y114.312 E1.84106
G1 X156.938 Y113.974 E0.01228
G1 X115.819 Y72.854 E1.82603
G1 X116.353 Y72.854 E0.01677
G1 X157.134 Y113.635 E1.81099
G1 X157.329 Y113.296 E0.01228
G1 X116.887 Y72.854 E1.79596
G1 X117.421 Y72.854 E0.01677
G1 X157.525 Y112.958 E1.78092
G1 X157.720 Y112.619 E0.01228
G1 X117.955 Y72.854 E1.76588
G1 X118.489 Y72.854 E0.01677
G1 X157.916 Y112.281 E1.75085
G1 X158.111 Y111.942 E0.01228
G1 X119.023 Y72.854 E1.73581
G1 X119.557 Y72.854 E0.01677
G1 X158.307 Y111.603 E1.72078
G1 X158.502 Y111.265 E0.01228
G1 X120.091 Y72.854 E1.70574
G1 X120.625 Y72.854 E0.01677
G1 X158.698 Y110.926 E1.69071
G1 X158.893 Y110.588 E0.01228
G1 X121.159 Y72.854 E1.67567
G1 X121.693 Y72.854 E0.01677
G1 X159.089 Y110.249 E1.66063
G1 X159.284 Y109.911 E0.01228
G1 X122.227 Y72.854 E1.64560
M73 Q4 S146
M73 P4 R145
G1 X122.761 Y72.854 E0.01677
G1 X159.480 Y109.572 E1.63056
G1 X159.675 Y109.233 E0.01228
G1 X123.295 Y72.854 E1.61553
G1 X123.830 Y72.854 E0.01677
G1 X159.870 Y108.895 E1.60049
G1 X160.066 Y108.556 E0.01228
G1 X124.364 Y72.854 E1.58546
G1 X124.898 Y72.854 E0.01677
G1 X160.261 Y108.218 E1.57042
G1 X160.457 Y107.879 E0.01228
G1 X125.432 Y72.854 E1.55539
G1 X125.966 Y72.854 E0.01677
G1 X160.652 Y107.541 E1.54035
G1 X160.848 Y107.202 E0.01228
G1 X126.500 Y72.854 E1.52531
G1 X127.034 Y72.854 E0.01677
G1 X161.043 Y106.863 E1.51028
G1 X161.239 Y106.525 E0.01228
G1 X127.568 Y72.854 E1.49524
G1 X128.102 Y72.854 E0.01677
G1 X161.434 Y106.186 E1.48021
G1 X161.630 Y105.848 E0.01228
G1 X128.636 Y72.854 E1.46517
G1 X129.170 Y72.854 E0.01677
G1 X161.825 Y105.509 E1.45014
G1 X162.021 Y105.170 E0.01228
G1 X129.704 Y72.854 E1.43510
G1 X130.238 Y72.854 E0.01677
G1 X162.220 Y104.836 E1.42025
G1 F8640
G1 X159.893 Y102.509 E-0.76000
G1 E-0.04000 F2100.00000
G1 Z0.800 F10800.000
G1 X161.491 Y103.572
G1 Z0.200
G1 E0.80000 F2100.00000
G1 F1200
G1 X130.772 Y72.854 E1.36414
G1 X131.306 Y72.854 E0.01677
G1 X160.761 Y102.309 E1.30802
G1 F8640
G1 X158.434 Y99.981 E-0.76000
G1 E-0.04000 F2100.00000
G1 Z0.800 F10800.000
G1 X160.032 Y101.045
G1 Z0.200
G1 E0.80000 F2100.00000
G1 F1200
G1 X131.840 Y72.854 E1.25191
G1 X132.375 Y72.854 E0.01677
G1 X159.302 Y99.782 E1.19579
G1 F8640
G1 X156.975 Y97.454 E-0.76000
G1 E-0.04000 F2100.00000
G1 Z0.800 F10800.000
G1 X158.573 Y98.518
G1 Z0.200
G1 E0.80000 F2100.00000
G1 F1200
G1 X132.909 Y72.854 E1.13968
G1 X133.443 Y72.854 E0.01677
G1 X157.843 Y97.254 E1.08357
G1 F8640
G1 X155.516 Y94.927 E-0.76000
G1 E-0.04000 F2100.00000
G1 Z0.800 F10800.000
G1 X157.114 Y95.991
G1 Z0.200
G1 E0.80000 F2100.00000
G1 F1200
G1 X133.977 Y72.854 E1.02745
G1 X134.511 Y72.854 E0.01677
G1 X156.384 Y94.727 E0.97134
G1 F8640
G1 X154.057 Y92.400 E-0.76000
G1 E-0.04000 F2100.00000
G1 Z0.800 F10800.000
G1 X155.655 Y93.464
G1 Z0.200
G1 E0.80000 F2100.00000
G1 F1200
G1 X135.045 Y72.854 E0.91523
G1 X135.579 Y72.854 E0.01677
G1 X154.925 Y92.200 E0.85911
G1 F8640
G1 X152.598 Y89.873 E-0.76000
G1 E-0.04000 F2100.00000
G1 Z0.800 F10800.000
G1 X154.195 Y90.936
G1 Z0.200
G1 E0.80000 F2100.00000
G1 F1200
G1 X136.113 Y72.854 E0.80300
G1 X136.647 Y72.854 E0.01677
G1 X153.466 Y89.673 E0.74688
G1 F8640
G1 X151.138 Y87.345 E-0.76000
G1 E-0.04000 F2100.00000
G1 Z0.800 F10800.000
G1 X152.736 Y88.409
G1 Z0.200
G1 E0.80000 F2100.00000
M73 Q5 S145
M73 P5 R144
G1 F1200
G1 X137.181 Y72.854 E0.69077
G1 X137.715 Y72.854 E0.01677
G1 X152.007 Y87.145 E0.63466
G1 F8640
G1 X149.679 Y84.818 E-0.76000
G1 E-0.04000 F2100.00000
G1 Z0.800 F10800.000
G1 X151.277 Y85.882
G1 Z0.200
G1 E0.80000 F2100.00000
G1 F1200
G1 X138.249 Y72.854 E0.57854
G1 X138.783 Y72.854 E0.01677
G1 X150.548 Y84.618 E0.52243
G1 F8640
G1 X148.220 Y82.291 E-0.76000
G1 E-0.04000 F2100.00000
G1 Z0.800 F10800.000
G1 X149.818 Y83.355
G1 Z0.200
G1 E0.80000 F2100.00000
G1 F1200
G1 X139.317 Y72.854 E0.46631
G1 X139.851 Y72.854 E0.01677
G1 X149.089 Y82.091 E0.41020
G1 F8640
G1 X146.761 Y79.764 E-0.76000
G1 E-0.04000 F2100.00000
G1 Z0.800 F10800.000
G1 X148.359 Y80.827
G1 Z0.200
G1 E0.80000 F2100.00000
G1 F1200
G1 X140.385 Y72.854 E0.35409
G1 X140.920 Y72.854 E0.01677
G1 X147.630 Y79.564 E0.29797
G1 F8640
G1 X145.302 Y77.236 E-0.76000
G1 E-0.04000 F2100.00000
G1 Z0.800 F10800.000
G1 X146.900 Y78.300
G1 Z0.200
G1 E0.80000 F2100.00000
G1 F1200
G1 X141.454 Y72.854 E0.24186
G1 X141.988 Y72.854 E0.01677
G1 X146.170 Y77.037 E0.18575
G1 F8640
G1 X143.843 Y74.709 E-0.76000
G1 E-0.04000 F2100.00000
G1 Z0.800 F10800.000
G1 X145.441 Y75.773
G1 Z0.200
G1 E0.80000 F2100.00000
G1 F1200
G1 X142.522 Y72.854 E0.12963
G1 X143.056 Y72.854 E0.01677
G1 X144.711 Y74.509 E0.07352
G1 F8640
G1 X143.056 Y72.854 E-0.54061
G1 X142.522 Y72.854 E-0.12332
G1 X142.816 Y73.148 E-0.09608
G1 E-0.04000 F2100.00000
G1 Z0.800 F10800.000
G1 X88.509 Y106.428
G1 Z0.200
G1 E0.80000 F2100.00000
G1 F1200
G1 X119.397 Y137.316 E1.37166
G1 X118.863 Y137.316 F10800.000
G1 F1200
G1 X89.239 Y107.691 E1.31555
G1 F8640
G1 X91.566 Y110.019 E-0.76000
G1 E-0.04000 F2100.00000
G1 Z0.800 F10800.000
G1 X89.968 Y108.955
G1 Z0.200
G1 E0.80000 F2100.00000
G1 F1200
G1 X118.329 Y137.316 E1.25943
G1 X117.795 Y137.316 F10800.000
G1 F1200
G1 X90.698 Y110.219 E1.20332
G1 F8640
G1 X93.025 Y112.546 E-0.76000
G1 E-0.04000 F2100.00000
G1 Z0.800 F10800.000
G1 X91.427 Y111.482
G1 Z0.200
G1 E0.80000 F2100.00000
G1 F1200
G1 X117.261 Y137.316 E1.14721
G1 X116.727 Y137.316 F10800.000
G1 F1200
G1 X92.157 Y112.746 E1.09109
G1 F8640
G1 X94.484 Y115.073 E-0.76000
G1 E-0.04000 F2100.00000
G1 Z0.800 F10800.000
G1 X92.887 Y114.009
G1 Z0.200
G1 E0.80000 F2100.00000
G1 F1200
G1 X116.193 Y137.316 E1.03498
G1 X115.659 Y137.316 F10800.000
G1 F1200
G1 X93.616 Y115.273 E0.97887
G1 F8640
G1 X95.943 Y117.600 E-0.76000
G1 E-0.04000 F2100.00000
G1 Z0.800 F10800.000
G1 X94.346 Y116.537
G1 Z0.200
G1 E0.80000 F2100.00000
G1 F1200
G1 X115.125 Y137.316 E0.92275
G1 X114.591 Y137.316 F10800.000
G1 F1200
G1 X95.075 Y117.800 E0.86664
G1 F8640
G1 X97.403 Y120.128 E-0.76000
G1 E-0.04000 F2100.00000
G1 Z0.800 F10800.000
G1 X95.805 Y119.064
G1 Z0.200
G1 E0.80000 F2100.00000
G1 F1200
G1 X114.057 Y137.316 E0.81052
